icons-dark/apps/48/system-software-update.svg

<?xml version="1.0" encoding="UTF-8" standalone="no"?>

<!-- Created with Inkscape (http://www.inkscape.org/) -->
<svg width="48" version="1.1" xmlns="http://www.w3.org/2000/svg" height="48" xmlns:xlink="http://www.w3.org/1999/xlink" xmlns:inkscape="http://www.inkscape.org/namespaces/inkscape">
 <defs id="defs5455">
  <linearGradient inkscape:collect="always" id="linearGradient4182">
   <stop style="stop-color:#f67400" id="stop4184"/>
   <stop offset="1" style="stop-color:#fdbc4b" id="stop4186"/>
  </linearGradient>
  <linearGradient inkscape:collect="always" id="linearGradient4649">
   <stop style="stop-color:#f67400" id="stop4651"/>
   <stop offset="1" style="stop-color:#f67400;stop-opacity:0" id="stop4653"/>
  </linearGradient>
  <linearGradient inkscape:collect="always" xlink:href="#linearGradient4303" id="linearGradient4174" y1="543.79797" y2="503.798" x2="0" gradientUnits="userSpaceOnUse"/>
  <linearGradient inkscape:collect="always" xlink:href="#linearGradient4182" id="linearGradient4388" y1="13" y2="33" x2="0" gradientUnits="userSpaceOnUse" gradientTransform="matrix(1 0 0 1 384.57143 499.798)"/>
  <linearGradient inkscape:collect="always" id="linearGradient4303">
   <stop style="stop-color:#c6cdd1" id="stop4305"/>
   <stop offset="1" style="stop-color:#e0e5e7" id="stop4307"/>
  </linearGradient>
  <linearGradient inkscape:collect="always" xlink:href="#linearGradient4182" id="linearGradient4602" y1="543.79797" y2="503.798" gradientUnits="userSpaceOnUse" x2="0" gradientTransform="matrix(0.89999998 0 0 0.89999998 -343.71428 -447.41818)"/>
  <linearGradient inkscape:collect="always" xlink:href="#linearGradient4649" id="linearGradient4694" y1="539.79797" x1="410.57144" y2="523.79797" x2="428.57144" gradientUnits="userSpaceOnUse"/>
  <linearGradient inkscape:collect="always" xlink:href="#linearGradient4227" id="linearGradient4773" y1="520.79797" x1="402.57144" y2="536.79797" x2="418.57147" gradientUnits="userSpaceOnUse"/>
  <linearGradient inkscape:collect="always" id="linearGradient4227">
   <stop style="stop-color:#292c2f" id="stop4229"/>
   <stop offset="1" style="stop-opacity:0" id="stop4231"/>
  </linearGradient>
 </defs>
 <metadata id="metadata5458"/>
 <g inkscape:label="Capa 1" inkscape:groupmode="layer" id="layer1" transform="matrix(1 0 0 1 -384.57143 -499.798)">
  <rect width="39.999989" x="388.57144" y="503.798" rx="19.999985" height="39.999969" style="stroke-opacity:0.550265;fill:url(#linearGradient4174);stroke-width:2.8" id="rect4166"/>
  <path inkscape:connector-curvature="0" style="stroke-opacity:0.550265;fill:url(#linearGradient4388);stroke-width:2.8" id="rect4318" d="m 408.57143,512.798 -9,9 5,0 0,11 8,0 0,-11 5,0 z"/>
  <path style="stroke-opacity:0.550265;fill:#808080;opacity:0.5;stroke-width:2.8" id="path4619" d="M 24 42 C 33.971992 42 42 33.971992 42 24 C 42 14.028008 33.971992 6 24 6 L 24 8 C 32.863992 8 40 15.136008 40 24 C 40 32.863992 32.863992 40 24 40 L 24 42 z " transform="matrix(1 0 0 1 384.57143 499.798)"/>
  <path inkscape:connector-curvature="0" style="stroke-opacity:0.550265;fill:url(#linearGradient4694);stroke-width:2.8" id="rect4681" d="m 408.57143,505.798 c -9.97199,0 -18,8.02801 -18,18 0,9.97199 8.02801,18 18,18 9.97199,0 18,-8.02801 18,-18 0,-9.97199 -8.02801,-18 -18,-18 z m 0,2 c 8.86399,0 16,7.13601 16,16 0,8.86399 -7.13601,16 -16,16 -8.86399,0 -16,-7.13601 -16,-16 0,-8.86399 7.13601,-16 16,-16 z"/>
  <path style="stroke-opacity:0.550265;fill:url(#linearGradient4602);stroke-width:2.8" id="rect4600" d="M 24 42 L 24 40 C 15.136008 40 8 32.863992 8 24 C 8 15.136008 15.136008 8 24 8 L 24 6 C 14.028008 6 6 14.028008 6 24 C 6 33.971992 14.028008 42 24 42 z " transform="matrix(1 0 0 1 384.57143 499.798)"/>
  <path style="stroke-opacity:0.550265;fill:#99a1a7;stroke-width:2.8" id="rect4775" d="M 4.0117188 23.5 C 4.007647 23.666859 4 23.832126 4 24 C 4 35.079992 12.920008 44 24 44 C 35.079992 44 44 35.079992 44 24 C 44 23.832126 43.992353 23.666859 43.988281 23.5 C 43.724099 34.346571 34.912435 43 24 43 C 13.087565 43 4.2759007 34.346571 4.0117188 23.5 z " transform="matrix(1 0 0 1 384.57143 499.798)"/>
  <path inkscape:connector-curvature="0" style="fill:url(#linearGradient4773);opacity:0.2;fill-rule:evenodd" id="path4696" d="m 412.57143,521.798 0,11 -8,0 10.06445,10.06445 c 5.68522,-1.79586 10.24831,-6.05306 12.4668,-11.5332 l -9.53125,-9.53125 -5,0 z"/>
 </g>
</svg>

<svg width="48" xmlns="http://www.w3.org/2000/svg" height="48" xmlns:xlink="http://www.w3.org/1999/xlink">
 <defs>
  <linearGradient id="a" y1="543.8" y2="503.8" x2="0" gradientUnits="userSpaceOnUse">
   <stop stop-color="#c6cdd1"/>
   <stop offset="1" stop-color="#e0e5e7"/>
  </linearGradient>
  <linearGradient id="b" y1="13" y2="33" x2="0" gradientUnits="userSpaceOnUse" gradientTransform="translate(384.57 499.8)">
   <stop stop-color="#f67400"/>
   <stop offset="1" stop-color="#fdbc4b"/>
  </linearGradient>
  <linearGradient xlink:href="#b" id="c" y1="42" y2="6" gradientUnits="userSpaceOnUse" x2="0"/>
  <linearGradient id="d" y1="539.8" x1="410.57" y2="523.8" x2="428.57" gradientUnits="userSpaceOnUse">
   <stop stop-color="#f67400"/>
   <stop offset="1" stop-color="#f67400" stop-opacity="0"/>
  </linearGradient>
  <linearGradient id="e" y1="520.8" x1="402.57" y2="536.8" x2="418.57" gradientUnits="userSpaceOnUse">
   <stop stop-color="#292c2f"/>
   <stop offset="1" stop-opacity="0"/>
  </linearGradient>
 </defs>
 <g transform="translate(-384.57-499.8)">
  <g stroke-opacity=".55" stroke-width="2.8">
   <rect width="40" x="388.57" y="503.8" fill="url(#a)" rx="20" height="40"/>
   <path fill="url(#b)" d="m408.57 512.8l-9 9h5v11h8v-11h5z"/>
   <path opacity=".5" fill="#808080" d="m24 42c9.972 0 18-8.03 18-18 0-9.972-8.03-18-18-18v2c8.864 0 16 7.136 16 16 0 8.864-7.136 16-16 16z" transform="translate(384.57 499.8)"/>
   <path fill="url(#d)" d="m408.57 505.8c-9.972 0-18 8.03-18 18 0 9.972 8.03 18 18 18 9.972 0 18-8.03 18-18 0-9.972-8.03-18-18-18m0 2c8.864 0 16 7.136 16 16 0 8.864-7.136 16-16 16-8.864 0-16-7.136-16-16 0-8.864 7.136-16 16-16"/>
   <path fill="url(#c)" d="m24 42v-2c-8.864 0-16-7.136-16-16 0-8.864 7.136-16 16-16v-2c-9.972 0-18 8.03-18 18 0 9.972 8.03 18 18 18" transform="translate(384.57 499.8)"/>
   <path fill="#99a1a7" d="m4.01 23.5c-.004.167-.012.332-.012.5 0 11.08 8.92 20 20 20 11.08 0 20-8.92 20-20 0-.168-.008-.333-.012-.5-.264 10.847-9.08 19.5-19.988 19.5-10.912 0-19.724-8.653-19.988-19.5" transform="translate(384.57 499.8)"/>
  </g>
  <path opacity=".2" fill="url(#e)" fill-rule="evenodd" d="m412.57 521.8v11h-8l10.06 10.06c5.685-1.796 10.248-6.05 12.467-11.533l-9.531-9.531z"/>
 </g>
</svg>
